X:971
T:Thomas Judge
T:Carolan's frolic
R:Other
O:Ireland
C:Turlough Carolan
B:The Complete Works of O'Carolan
S:The Complete Works of O'Carolan
Z:Transcription, chords:Mike Long
M:6/8
L:1/8
K:F
(3(c/A/G/)|\
"Dm"Add d2c |"Bb"d/c/d/e/f fgf |\
"Dm"f/e/d/e/f "Bb"d/c/B/A/G/F/|"Gm"DGG G2 A/G/|
"F"FCc "C"cA/B/c|"Dm"AFf "Am"a/g/f/g/a|\
"Bb"{g}fdd "Am"cAG|"Dm"Add d2 z|]
"Dm"Add def|"F"AGF "Gm"GFE|\
"Am"ccc ccc|"Am"cA/B/c/A/ "Bb"d2z|
"Dm"D/E/FE D/E/FD|"C"CEc GEC|\
"F"A2G "Dm"FED "Am"CA,C "Dm"D2z|]
"Dm"DFd DFd|"C"cd/c/B/A/ GEC|"F"FAf FAf|"Bb"f/e/d/c/d/e/ "Dm"f2 A/c/|
"Bb"de/d/c/B/ "Am"cd/c/B/A/|\
"Gm"GA/G/F/E/ "Dm"FG/F/E/D/|"C"CEc CEA/E/|"Dm"FDD D2|]
